build/img/logo.svg

<svg width="67" height="70" viewBox="0 0 67 70" fill="none" xmlns="http://www.w3.org/2000/svg">
<path d="M10.4727 15.5859H9.00781V9.10156H7.30859C6.61849 9.10156 6.01953 9.16016 5.51172 9.27734C5.00391 9.39453 4.58073 9.59635 4.24219 9.88281C3.91667 10.1562 3.67578 10.5339 3.51953 11.0156C3.36328 11.4974 3.28516 12.1029 3.28516 12.832V31.1133C3.28516 31.543 3.35677 31.9401 3.5 32.3047C3.64323 32.6562 3.83854 32.9688 4.08594 33.2422C4.33333 33.5026 4.6263 33.7109 4.96484 33.8672C5.31641 34.0104 5.70052 34.082 6.11719 34.082C6.5599 34.082 6.95703 34.0039 7.30859 33.8477C7.66016 33.6914 7.95964 33.4831 8.20703 33.2227C8.46745 32.9492 8.66276 32.6367 8.79297 32.2852C8.9362 31.9206 9.00781 31.5299 9.00781 31.1133V22.168H6.52734V20.8594H10.4727V31.1328C10.4727 31.7578 10.3555 32.3307 10.1211 32.8516C9.89974 33.3724 9.59375 33.8216 9.20312 34.1992C8.8125 34.5768 8.35026 34.8698 7.81641 35.0781C7.29557 35.2865 6.73568 35.3906 6.13672 35.3906C5.51172 35.3906 4.93229 35.2799 4.39844 35.0586C3.8776 34.8372 3.42188 34.5378 3.03125 34.1602C2.65365 33.7826 2.35417 33.3333 2.13281 32.8125C1.92448 32.2917 1.82031 31.7318 1.82031 31.1328V13.4766C1.82031 13.0469 1.82682 12.6042 1.83984 12.1484C1.86589 11.6927 1.92448 11.2565 2.01562 10.8398C2.10677 10.4232 2.25651 10.0326 2.46484 9.66797C2.67318 9.29036 2.95964 8.96484 3.32422 8.69141C3.70182 8.40495 4.17708 8.18359 4.75 8.02734C5.33594 7.87109 6.05208 7.79297 6.89844 7.79297H10.4727V15.5859ZM23.8086 15.1172V31.4453C23.8086 32.0182 23.737 32.5456 23.5938 33.0273C23.4505 33.5091 23.2357 33.9258 22.9492 34.2773C22.6628 34.6289 22.3047 34.9023 21.875 35.0977C21.4583 35.293 20.9701 35.3906 20.4102 35.3906C19.8503 35.3906 19.3555 35.2995 18.9258 35.1172C18.5091 34.9479 18.1576 34.707 17.8711 34.3945C17.5977 34.069 17.3893 33.6914 17.2461 33.2617C17.1029 32.819 17.0312 32.3372 17.0312 31.8164V15.1172H18.4961V31.9336C18.4961 32.5326 18.6589 33.0404 18.9844 33.457C19.3229 33.8737 19.8047 34.082 20.4297 34.082C21.0417 34.082 21.5104 33.8477 21.8359 33.3789C22.1745 32.8971 22.3438 32.3177 22.3438 31.6406V15.1172H23.8086ZM30.6406 35V15.1172H32.1055V35H30.6406ZM30.4453 8.37891C30.4453 7.72786 30.7578 7.40234 31.3828 7.40234C31.6823 7.40234 31.9167 7.48698 32.0859 7.65625C32.2682 7.8125 32.3594 8.05339 32.3594 8.37891C32.3594 8.6263 32.2747 8.84115 32.1055 9.02344C31.9492 9.20573 31.7083 9.29688 31.3828 9.29688C31.0833 9.29688 30.849 9.20573 30.6797 9.02344C30.5234 8.84115 30.4453 8.6263 30.4453 8.37891ZM39.3477 16.4258H37.7266V15.1172H39.3477V12.6562H40.8125V15.1172H43.4883V16.4258H40.8125V31.9336C40.8125 32.5326 40.9753 33.0404 41.3008 33.457C41.6263 33.8607 42.1016 34.0625 42.7266 34.0625H43.3711V35.3906H42.7266C42.1667 35.3906 41.6719 35.2995 41.2422 35.1172C40.8255 34.9349 40.474 34.6875 40.1875 34.375C39.9141 34.0495 39.7057 33.6719 39.5625 33.2422C39.4193 32.7995 39.3477 32.3242 39.3477 31.8164V16.4258ZM52.1367 33.6914C52.7617 33.6914 53.237 33.4831 53.5625 33.0664C53.901 32.6497 54.0703 32.1419 54.0703 31.543V24.6484H52.1367C51.5247 24.6484 51.0495 24.8503 50.7109 25.2539C50.3854 25.6576 50.2227 26.1654 50.2227 26.7773V33.6914H52.1367ZM48.7578 35V26.9141C48.7578 26.3932 48.8294 25.918 48.9727 25.4883C49.1159 25.0456 49.3307 24.668 49.6172 24.3555C49.9036 24.0299 50.2552 23.7826 50.6719 23.6133C51.1016 23.431 51.5898 23.3398 52.1367 23.3398H54.0703V18.1641C54.0703 17.5651 53.901 17.0638 53.5625 16.6602C53.237 16.2435 52.7617 16.0352 52.1367 16.0352C51.5247 16.0352 51.0495 16.2695 50.7109 16.7383C50.3854 17.207 50.2227 17.7799 50.2227 18.457L48.7773 18.6719C48.7773 18.112 48.849 17.5911 48.9922 17.1094C49.1354 16.6276 49.3438 16.2109 49.6172 15.8594C49.9036 15.5078 50.2552 15.2344 50.6719 15.0391C51.1016 14.8307 51.5898 14.7266 52.1367 14.7266C52.6966 14.7266 53.1849 14.8177 53.6016 15C54.0312 15.1823 54.3893 15.4362 54.6758 15.7617C54.9622 16.0742 55.1771 16.4518 55.3203 16.8945C55.4635 17.3242 55.5352 17.793 55.5352 18.3008V31.4258C55.5352 31.9466 55.4635 32.4284 55.3203 32.8711C55.1771 33.3008 54.9622 33.6784 54.6758 34.0039C54.3893 34.3164 54.0312 34.5638 53.6016 34.7461C53.1849 34.9154 52.6966 35 52.1367 35H48.7578ZM66.1953 16.3086C66 16.2565 65.7656 16.2305 65.4922 16.2305C64.8672 16.2305 64.3854 16.4388 64.0469 16.8555C63.7214 17.2721 63.5586 17.7799 63.5586 18.3789V35H62.0938V18.4961C62.0938 17.9753 62.1654 17.5 62.3086 17.0703C62.4518 16.6276 62.6667 16.25 62.9531 15.9375C63.2396 15.612 63.5911 15.3646 64.0078 15.1953C64.4375 15.013 64.9323 14.9219 65.4922 14.9219C65.7266 14.9219 65.9544 14.9414 66.1758 14.9805C66.3971 15.0065 66.599 15.0521 66.7812 15.1172L66.1953 16.3086Z" fill="black"/>
<path d="M23.1693 53.4639C23.4571 53.0068 23.7152 52.5413 23.9438 52.0674C24.1723 51.585 24.3627 51.1152 24.515 50.6582C24.3119 50.3704 24.1384 50.0785 23.9945 49.7822C23.8591 49.4775 23.7914 49.1644 23.7914 48.8428C23.7914 48.5296 23.821 48.2461 23.8803 47.9922C23.9395 47.7383 24.0199 47.5225 24.1215 47.3447C24.223 47.167 24.3373 47.0316 24.4643 46.9385C24.5912 46.8369 24.7224 46.7861 24.8578 46.7861C25.044 46.7861 25.1921 46.8792 25.3021 47.0654C25.4206 47.2516 25.4714 47.4886 25.4545 47.7764C25.4376 48.1149 25.391 48.4788 25.3148 48.8682C25.2471 49.2575 25.1456 49.6553 25.0102 50.0615C25.1794 50.2562 25.3529 50.4508 25.5307 50.6455C25.7169 50.8317 25.8819 51.0264 26.0258 51.2295C26.1781 51.4326 26.3008 51.6527 26.3939 51.8896C26.4955 52.1182 26.5463 52.3678 26.5463 52.6387C26.5463 53.0111 26.4743 53.3538 26.3305 53.667C26.1951 53.9801 26.03 54.251 25.8354 54.4795C25.6407 54.708 25.4376 54.8857 25.226 55.0127C25.0144 55.1396 24.8324 55.2031 24.6801 55.2031C24.4177 55.2031 24.2146 55.1354 24.0707 55C23.9353 54.8646 23.8676 54.7165 23.8676 54.5557C23.8676 54.4287 23.8887 54.3018 23.9311 54.1748C23.9734 54.0479 24.0199 53.9336 24.0707 53.832C24.1299 53.722 24.185 53.6331 24.2357 53.5654C24.295 53.4977 24.3373 53.4639 24.3627 53.4639C24.405 53.4639 24.4304 53.4808 24.4389 53.5146C24.4558 53.54 24.4643 53.5654 24.4643 53.5908C24.4643 53.6331 24.46 53.6924 24.4516 53.7686C24.4431 53.8447 24.4389 53.9082 24.4389 53.959C24.4389 54.1029 24.4854 54.2214 24.5785 54.3145C24.6801 54.4076 24.8409 54.4541 25.0609 54.4541C25.154 54.4541 25.2598 54.4329 25.3783 54.3906C25.4968 54.3483 25.6111 54.2806 25.7211 54.1875C25.8311 54.0944 25.92 53.9801 25.9877 53.8447C26.0639 53.7008 26.102 53.5316 26.102 53.3369C26.102 53.1592 26.0596 52.973 25.975 52.7783C25.8904 52.5837 25.7803 52.3848 25.6449 52.1816C25.5095 51.9785 25.3572 51.7712 25.1879 51.5596C25.0271 51.348 24.8663 51.1322 24.7055 50.9121C24.5108 51.3945 24.295 51.8643 24.058 52.3213C23.8295 52.7699 23.584 53.1846 23.3217 53.5654L23.1693 53.4639ZM24.1342 48.1826C24.1342 48.5042 24.1934 48.792 24.3119 49.0459C24.4304 49.2913 24.587 49.5326 24.7816 49.7695C24.8493 49.5072 24.8959 49.2575 24.9213 49.0205C24.9467 48.7751 24.9594 48.5423 24.9594 48.3223C24.9594 47.7298 24.8282 47.4336 24.5658 47.4336C24.4896 47.4336 24.3965 47.4928 24.2865 47.6113C24.185 47.7214 24.1342 47.9118 24.1342 48.1826ZM30.6316 53.0703C30.6316 52.8503 30.6443 52.4948 30.6697 52.0039C30.6951 51.5046 30.7247 50.874 30.7586 50.1123C30.7924 49.3506 30.8221 48.4619 30.8475 47.4463C30.8729 46.4307 30.8855 45.2923 30.8855 44.0312C30.8855 43.4134 30.8813 42.821 30.8729 42.2539C30.8729 41.6784 30.8686 41.1706 30.8602 40.7305C30.8517 40.2819 30.8432 39.9222 30.8348 39.6514C30.8348 39.3721 30.8348 39.2197 30.8348 39.1943C30.8348 39.1266 30.8432 39.0674 30.8602 39.0166C30.8855 38.9658 30.9321 38.9193 30.9998 38.877C31.0506 38.8516 31.1098 38.8177 31.1775 38.7754C31.2537 38.7246 31.3299 38.6992 31.4061 38.6992C31.4992 38.6992 31.5711 38.7246 31.6219 38.7754C31.6727 38.8177 31.7107 38.8981 31.7361 39.0166C31.77 39.1266 31.7954 39.3213 31.8123 39.6006C31.8292 39.8714 31.8377 40.2523 31.8377 40.7432C31.8462 41.2256 31.8504 41.8519 31.8504 42.6221C31.8504 43.333 31.8335 44.0693 31.7996 44.8311C31.7658 45.5928 31.7234 46.3418 31.6727 47.0781C31.6303 47.8145 31.5796 48.5212 31.5203 49.1982C31.4695 49.8753 31.4188 50.4847 31.368 51.0264C31.3257 51.568 31.2876 52.0208 31.2537 52.3848C31.2199 52.7402 31.2029 52.9688 31.2029 53.0703C31.2029 53.1126 31.2029 53.1634 31.2029 53.2227C31.2029 53.2819 31.2072 53.3411 31.2156 53.4004C31.2241 53.4512 31.2368 53.4977 31.2537 53.54C31.2706 53.5739 31.296 53.5908 31.3299 53.5908C31.4145 53.5908 31.5034 53.4554 31.5965 53.1846C31.6896 52.9137 31.8081 52.5498 31.952 52.0928C32.0451 51.805 32.1508 51.513 32.2693 51.2168C32.3878 50.9206 32.5105 50.654 32.6375 50.417C32.7729 50.1715 32.9083 49.9727 33.0438 49.8203C33.1876 49.668 33.3273 49.5918 33.4627 49.5918C33.5643 49.5918 33.6489 49.6214 33.7166 49.6807C33.7928 49.7399 33.8563 49.8161 33.907 49.9092C33.9578 49.9938 33.9959 50.0869 34.0213 50.1885C34.0467 50.29 34.0678 50.3874 34.0848 50.4805C34.0932 50.582 34.1059 50.7344 34.1229 50.9375C34.1398 51.1406 34.1567 51.3734 34.1736 51.6357C34.1906 51.8981 34.2075 52.1732 34.2244 52.4609C34.2498 52.7487 34.2752 53.0238 34.3006 53.2861C34.3429 53.7601 34.4572 54.1029 34.6434 54.3145C34.8296 54.526 35.0708 54.6318 35.367 54.6318C35.4855 54.6318 35.5786 54.6234 35.6463 54.6064C35.714 54.5895 35.7775 54.5811 35.8367 54.5811C35.879 54.5811 35.8875 54.6234 35.8621 54.708C35.8452 54.7419 35.7732 54.8011 35.6463 54.8857C35.5193 54.9619 35.2951 55 34.9734 55C34.7026 55 34.4741 54.9577 34.2879 54.873C34.1102 54.7799 33.9663 54.6403 33.8563 54.4541C33.7547 54.2594 33.6743 54.0098 33.615 53.7051C33.5643 53.3919 33.5304 53.0195 33.5135 52.5879C33.4965 52.3424 33.4796 52.0885 33.4627 51.8262C33.4542 51.5553 33.4331 51.3099 33.3992 51.0898C33.3738 50.8698 33.3357 50.6921 33.285 50.5566C33.2342 50.4128 33.1622 50.3408 33.0691 50.3408C32.993 50.3408 32.9083 50.4297 32.8152 50.6074C32.7221 50.7767 32.629 50.9798 32.5359 51.2168C32.4513 51.4453 32.3709 51.6781 32.2947 51.915C32.2186 52.1436 32.1593 52.3213 32.117 52.4482C32.0831 52.5498 32.0324 52.7191 31.9646 52.9561C31.8969 53.193 31.8165 53.4342 31.7234 53.6797C31.6303 53.9251 31.5288 54.141 31.4188 54.3271C31.3087 54.5133 31.1945 54.6064 31.076 54.6064C30.9744 54.6064 30.894 54.5514 30.8348 54.4414C30.7755 54.3229 30.729 54.1833 30.6951 54.0225C30.6697 53.8532 30.6528 53.6839 30.6443 53.5146C30.6359 53.3369 30.6316 53.1888 30.6316 53.0703ZM40.8234 54.2002C41.0266 54.2002 41.2255 54.1579 41.4201 54.0732C41.6148 53.9801 41.7883 53.849 41.9406 53.6797C42.093 53.502 42.2115 53.2861 42.2961 53.0322C42.3892 52.7783 42.4357 52.4821 42.4357 52.1436C42.4357 51.8643 42.4019 51.6019 42.3342 51.3564C42.2665 51.1025 42.1649 50.8825 42.0295 50.6963C41.9025 50.5101 41.7333 50.362 41.5217 50.252C41.3186 50.1419 41.0773 50.0869 40.798 50.0869C40.6034 50.0869 40.4087 50.125 40.2141 50.2012C40.0194 50.2689 39.8459 50.3831 39.6936 50.5439C39.5412 50.6963 39.4185 50.8952 39.3254 51.1406C39.2323 51.3776 39.1857 51.6654 39.1857 52.0039C39.1857 52.2747 39.2196 52.5413 39.2873 52.8037C39.355 53.0576 39.4523 53.2904 39.5793 53.502C39.7147 53.7135 39.884 53.8828 40.0871 54.0098C40.2987 54.1367 40.5441 54.2002 40.8234 54.2002ZM40.3791 54.8477C39.8205 54.8477 39.3635 54.6657 39.008 54.3018C38.6525 53.9294 38.4748 53.3919 38.4748 52.6895C38.4748 52.2155 38.5637 51.7796 38.7414 51.3818C38.9191 50.9756 39.1477 50.6286 39.427 50.3408C39.7147 50.0446 40.0321 49.8161 40.3791 49.6553C40.7261 49.4945 41.0646 49.4141 41.3947 49.4141C41.9279 49.4141 42.3553 49.596 42.677 49.96C42.9986 50.3239 43.1594 50.8613 43.1594 51.5723C43.1594 52.0462 43.0747 52.4821 42.9055 52.8799C42.7447 53.2777 42.5288 53.6247 42.258 53.9209C41.9956 54.2087 41.6994 54.4372 41.3693 54.6064C41.0393 54.7673 40.7092 54.8477 40.3791 54.8477ZM47.9937 47.332C48.0361 47.332 48.0488 47.4167 48.0318 47.5859C48.0234 47.7467 48.0022 47.9583 47.9684 48.2207C47.943 48.4746 47.9133 48.7581 47.8795 49.0713C47.8456 49.3844 47.8287 49.6891 47.8287 49.9854C47.8287 50.5863 47.8329 51.1491 47.8414 51.6738C47.8583 52.1986 47.8795 52.7106 47.9049 53.21C48.1842 52.7445 48.4677 52.3213 48.7555 51.9404C49.0517 51.5596 49.3479 51.2337 49.6441 50.9629C49.9404 50.6921 50.2366 50.4847 50.5328 50.3408C50.829 50.1885 51.1253 50.1123 51.4215 50.1123C51.6585 50.1123 51.8574 50.18 52.0182 50.3154C52.179 50.4424 52.2594 50.6709 52.2594 51.001C52.2594 51.238 52.2086 51.4792 52.107 51.7246C52.0139 51.9616 51.8827 52.2028 51.7135 52.4482C51.5527 52.6852 51.3665 52.918 51.1549 53.1465C50.9518 53.375 50.7444 53.5908 50.5328 53.7939C50.025 54.2679 49.4537 54.7292 48.8189 55.1777L48.692 55.0254C49.1913 54.5938 49.6399 54.1706 50.0377 53.7559C50.207 53.5781 50.372 53.3962 50.5328 53.21C50.6936 53.0153 50.8375 52.8249 50.9645 52.6387C51.0914 52.444 51.193 52.262 51.2691 52.0928C51.3538 51.915 51.3961 51.75 51.3961 51.5977C51.3961 51.5469 51.3876 51.4792 51.3707 51.3945C51.3622 51.3099 51.3326 51.2295 51.2818 51.1533C51.2311 51.0687 51.1549 51.001 51.0533 50.9502C50.9602 50.891 50.8333 50.8613 50.6725 50.8613C50.4778 50.8613 50.2704 50.929 50.0504 51.0645C49.8303 51.1999 49.6018 51.3945 49.3648 51.6484C49.1363 51.8939 48.8993 52.1986 48.6539 52.5625C48.4169 52.918 48.1799 53.3158 47.943 53.7559C47.9768 54.3652 48.0149 54.9535 48.0572 55.5205C48.0995 56.0876 48.1376 56.6504 48.1715 57.209C48.2138 57.776 48.2434 58.3516 48.2604 58.9355C48.2857 59.5195 48.2984 60.1331 48.2984 60.7764C48.2984 62.266 48.2138 63.5693 48.0445 64.6865C47.8837 65.8037 47.6721 66.7347 47.4098 67.4795C47.1559 68.2327 46.8681 68.7956 46.5465 69.168C46.2164 69.5488 45.8906 69.7393 45.5689 69.7393C45.3827 69.7393 45.2008 69.6631 45.023 69.5107C44.8368 69.3584 44.676 69.1341 44.5406 68.8379C44.3967 68.5501 44.2825 68.1947 44.1979 67.7715C44.1048 67.3483 44.0582 66.8617 44.0582 66.3115C44.0582 65.5075 44.1344 64.6146 44.2867 63.6328C44.4391 62.651 44.6549 61.6439 44.9342 60.6113C45.205 59.5872 45.5266 58.5632 45.899 57.5391C46.2714 56.5234 46.6734 55.5713 47.1051 54.6826V53.4131C47.1051 52.4144 47.1432 51.5384 47.2193 50.7852C47.304 50.0234 47.3971 49.3887 47.4986 48.8809C47.6002 48.3646 47.6975 47.9795 47.7906 47.7256C47.8922 47.4632 47.9599 47.332 47.9937 47.332ZM47.3971 61.2969C47.3971 60.5521 47.3844 59.9258 47.359 59.418C47.3421 58.9186 47.3167 58.4616 47.2828 58.0469C47.2574 57.6406 47.2278 57.2344 47.1939 56.8281C47.1686 56.4219 47.1474 55.9437 47.1305 55.3936C46.8089 56.1214 46.5084 56.9001 46.2291 57.7295C45.9498 58.5674 45.7044 59.4307 45.4928 60.3193C45.2727 61.208 45.1035 62.1051 44.985 63.0107C44.858 63.9163 44.7945 64.8008 44.7945 65.6641C44.7945 65.9941 44.8115 66.3623 44.8453 66.7686C44.8792 67.1748 44.9426 67.5557 45.0357 67.9111C45.1204 68.2666 45.2346 68.5628 45.3785 68.7998C45.5139 69.0452 45.6917 69.168 45.9117 69.168C46.081 69.168 46.2376 69.0622 46.3814 68.8506C46.5253 68.639 46.6523 68.347 46.7623 67.9746C46.8723 67.6022 46.9654 67.1621 47.0416 66.6543C47.1262 66.1549 47.1939 65.6133 47.2447 65.0293C47.2955 64.4453 47.3336 63.8359 47.359 63.2012C47.3844 62.5664 47.3971 61.9316 47.3971 61.2969Z" fill="black"/>
<line x1="1" y1="38.8" x2="67" y2="38.8" stroke="black" stroke-width="0.4"/>
<line x1="13" y1="42.8" x2="67" y2="42.8" stroke="black" stroke-width="0.4"/>
<line x1="53" y1="46.8" x2="67" y2="46.8" stroke="black" stroke-width="0.4"/>
<line x1="57" y1="50.8" x2="67" y2="50.8" stroke="black" stroke-width="0.4"/>
</svg>

<svg width="67" height="70" fill="none" xmlns="http://www.w3.org/2000/svg"><path d="M10.473 15.586H9.008V9.102h-1.7c-.69 0-1.288.058-1.796.175-.508.118-.931.32-1.27.606-.325.273-.566.65-.722 1.133-.157.481-.235 1.087-.235 1.816v18.281c0 .43.072.827.215 1.192.143.351.339.664.586.937.247.26.54.469.879.625.351.143.736.215 1.152.215.443 0 .84-.078 1.192-.234a2.78 2.78 0 00.898-.625c.26-.274.456-.586.586-.938.143-.364.215-.755.215-1.172v-8.945h-2.48v-1.309h3.945v10.274a4.14 4.14 0 01-.352 1.719 4.06 4.06 0 01-.918 1.347 4.13 4.13 0 01-1.387.88 4.48 4.48 0 01-1.68.312 4.503 4.503 0 01-1.738-.332 4.453 4.453 0 01-1.367-.899 4.214 4.214 0 01-.898-1.347 4.48 4.48 0 01-.313-1.68V13.477c0-.43.007-.873.02-1.329a8.25 8.25 0 01.176-1.308c.09-.417.24-.807.449-1.172.208-.378.495-.703.86-.977.377-.286.852-.507 1.425-.664.586-.156 1.302-.234 2.148-.234h3.575v7.793zm13.336-.469v16.328c0 .573-.072 1.1-.215 1.582a3.559 3.559 0 01-.645 1.25 2.924 2.924 0 01-1.074.82c-.417.196-.905.294-1.465.294s-1.055-.091-1.484-.274a2.877 2.877 0 01-1.055-.722 3.425 3.425 0 01-.625-1.133 4.673 4.673 0 01-.215-1.446V15.117h1.465v16.817c0 .599.163 1.106.488 1.523.339.417.82.625 1.446.625.612 0 1.08-.234 1.406-.703.338-.482.508-1.061.508-1.738V15.117h1.465zM30.64 35V15.117h1.465V35H30.64zm-.196-26.621c0-.651.313-.977.938-.977.3 0 .534.085.703.254.182.157.273.397.273.723a.916.916 0 01-.254.644c-.156.183-.397.274-.722.274-.3 0-.534-.091-.703-.274a.959.959 0 01-.235-.644zm8.903 8.047h-1.621v-1.309h1.62v-2.46h1.465v2.46h2.676v1.309h-2.675v15.508c0 .599.162 1.106.488 1.523.325.404.8.605 1.426.605h.644v1.329h-.644c-.56 0-1.055-.091-1.485-.274a3.09 3.09 0 01-1.054-.742 3.425 3.425 0 01-.626-1.133 4.606 4.606 0 01-.214-1.426v-15.39zm12.79 17.264c.625 0 1.1-.208 1.425-.625.339-.416.508-.924.508-1.523v-6.895h-1.933c-.612 0-1.087.202-1.426.606-.326.404-.488.911-.488 1.523v6.914h1.914zM48.757 35v-8.086c0-.52.072-.996.216-1.426a3.03 3.03 0 01.644-1.133 2.771 2.771 0 011.055-.742 3.72 3.72 0 011.465-.273h1.933v-5.176c0-.599-.169-1.1-.508-1.504-.325-.416-.8-.625-1.425-.625-.612 0-1.087.235-1.426.703-.326.469-.488 1.042-.488 1.719l-1.446.215c0-.56.072-1.08.215-1.563.143-.481.352-.898.625-1.25a2.964 2.964 0 011.055-.82c.43-.208.918-.312 1.465-.312.56 0 1.048.09 1.465.273a3.028 3.028 0 011.718 1.895 4.4 4.4 0 01.215 1.406v13.125c0 .52-.071 1.002-.215 1.445a3.25 3.25 0 01-.644 1.133 3.06 3.06 0 01-1.074.742c-.417.17-.905.254-1.465.254h-3.38zm17.438-18.691a2.757 2.757 0 00-.703-.079c-.625 0-1.107.209-1.445.625-.326.417-.488.925-.488 1.524V35h-1.465V18.496c0-.52.071-.996.215-1.426.143-.442.358-.82.644-1.133a2.773 2.773 0 011.055-.742c.43-.182.924-.273 1.484-.273.235 0 .462.02.684.058.221.027.423.072.605.137l-.586 1.192zM23.17 53.464c.287-.457.545-.923.774-1.397.228-.482.419-.952.571-1.409a6.274 6.274 0 01-.52-.876 2.29 2.29 0 01-.204-.94c0-.312.03-.596.09-.85a2.37 2.37 0 01.24-.647 1.28 1.28 0 01.343-.407.624.624 0 01.394-.152c.186 0 .334.093.444.28.119.186.17.423.152.71a7.71 7.71 0 01-.14 1.092 8.24 8.24 0 01-.304 1.194c.17.194.343.389.52.584.187.186.352.38.496.584.152.203.275.423.368.66.102.228.152.478.152.749 0 .372-.072.715-.215 1.028a3.227 3.227 0 01-.496.813 2.508 2.508 0 01-.609.533c-.212.127-.394.19-.546.19-.262 0-.465-.068-.61-.203a.619.619 0 01-.202-.444c0-.127.02-.254.063-.381.042-.127.089-.241.14-.343.059-.11.114-.199.165-.267.059-.067.101-.101.127-.101.042 0 .067.017.076.05a.138.138 0 01.025.077c0 .042-.004.101-.012.178-.009.076-.013.14-.013.19 0 .144.046.262.14.355.101.094.262.14.482.14a.958.958 0 00.317-.063 1.11 1.11 0 00.61-.546 1.07 1.07 0 00.114-.508c0-.178-.042-.364-.127-.559a3.85 3.85 0 00-.33-.596 8.908 8.908 0 00-.457-.622c-.16-.212-.322-.428-.482-.648-.195.483-.411.952-.648 1.41a11.04 11.04 0 01-.736 1.243l-.153-.101zm.964-5.281c0 .321.06.609.178.863.118.245.275.487.47.724a5.24 5.24 0 00.14-.75c.025-.245.037-.478.037-.698 0-.592-.13-.888-.393-.888-.076 0-.17.059-.28.177-.101.11-.152.3-.152.572zm6.498 4.887c0-.22.012-.575.038-1.066.025-.5.055-1.13.089-1.892a139.99 139.99 0 00.114-7.858 80.834 80.834 0 00-.038-2.603v-.457a.56.56 0 01.025-.177.365.365 0 01.14-.14c.05-.025.11-.06.177-.102a.41.41 0 01.23-.076c.092 0 .164.026.215.076.05.043.089.123.114.242.034.11.06.304.076.584.017.27.026.651.026 1.142.008.483.012 1.109.012 1.88 0 .71-.017 1.446-.05 2.208-.034.762-.077 1.51-.127 2.247a71.297 71.297 0 01-.153 2.12 99.5 99.5 0 01-.152 1.828c-.042.542-.08.995-.114 1.359a9.64 9.64 0 00-.051.685v.153c0 .059.004.118.013.177.008.051.02.098.038.14.017.034.042.05.076.05.085 0 .173-.135.267-.405.093-.271.211-.635.355-1.092.093-.288.199-.58.317-.876.119-.296.242-.563.369-.8.135-.245.27-.444.406-.597.144-.152.283-.228.419-.228.101 0 .186.03.254.089a.71.71 0 01.19.228c.05.085.089.178.114.28.026.101.047.198.064.291a37.947 37.947 0 01.089 1.155c.017.263.034.538.05.826.026.288.051.563.077.825.042.474.156.817.342 1.029a.92.92 0 00.724.317 1.2 1.2 0 00.28-.026.788.788 0 01.19-.025c.042 0 .05.042.025.127-.017.034-.089.093-.216.178-.127.076-.35.114-.673.114-.27 0-.499-.042-.685-.127a1.08 1.08 0 01-.432-.419 2.782 2.782 0 01-.241-.749 9.406 9.406 0 01-.102-1.117l-.05-.762a6.128 6.128 0 00-.064-.736 2.317 2.317 0 00-.114-.533c-.05-.144-.123-.216-.216-.216-.076 0-.16.089-.254.266a5.29 5.29 0 00-.28.61 17.31 17.31 0 00-.24.698l-.178.533c-.034.102-.085.271-.152.508a9.073 9.073 0 01-.242.724 4.207 4.207 0 01-.304.647c-.11.186-.224.28-.343.28-.102 0-.182-.056-.241-.166a1.736 1.736 0 01-.14-.419 5.168 5.168 0 01-.05-.507 9.724 9.724 0 01-.013-.445zm10.191 1.13c.204 0 .402-.042.597-.127a1.66 1.66 0 00.52-.393c.153-.178.272-.394.356-.648.093-.254.14-.55.14-.888 0-.28-.034-.542-.102-.788a1.976 1.976 0 00-.305-.66 1.363 1.363 0 00-.507-.444 1.497 1.497 0 00-.724-.165c-.195 0-.39.038-.584.114a1.3 1.3 0 00-.52.343 1.665 1.665 0 00-.369.597c-.093.237-.14.524-.14.863 0 .27.035.537.102.8.068.254.165.486.292.698.136.212.305.38.508.508.212.127.457.19.736.19zm-.444.648c-.558 0-1.015-.182-1.371-.546-.355-.373-.533-.91-.533-1.612 0-.474.089-.91.266-1.308a3.48 3.48 0 01.686-1.041 3.2 3.2 0 01.952-.686c.347-.16.686-.24 1.016-.24.533 0 .96.181 1.282.545.322.364.482.901.482 1.612 0 .474-.084.91-.253 1.308a3.412 3.412 0 01-.648 1.04 3.13 3.13 0 01-.889.686c-.33.161-.66.242-.99.242zm7.615-7.516c.042 0 .055.085.038.254-.009.16-.03.372-.064.635a86.5 86.5 0 01-.089.85c-.033.313-.05.618-.05.914 0 .601.004 1.164.012 1.689.017.525.038 1.037.064 1.536.28-.465.563-.889.85-1.27.297-.38.593-.706.89-.977.295-.27.592-.478.888-.622.296-.153.592-.229.889-.229.236 0 .435.068.596.203.161.127.241.356.241.686 0 .237-.05.478-.152.724a3.605 3.605 0 01-.393.723c-.161.237-.347.47-.56.699-.202.228-.41.444-.621.647-.508.474-1.08.935-1.714 1.384l-.127-.153c.5-.431.948-.854 1.346-1.27.169-.177.334-.359.495-.545.16-.195.304-.385.431-.571.127-.195.229-.377.305-.546a1.16 1.16 0 00.127-.495 1.07 1.07 0 00-.025-.203.525.525 0 00-.09-.242.538.538 0 00-.228-.203.705.705 0 00-.38-.089c-.195 0-.403.068-.623.204-.22.135-.448.33-.685.583a7.45 7.45 0 00-.711.914c-.237.356-.474.754-.711 1.194.034.61.072 1.197.114 1.764.042.568.08 1.13.114 1.689.043.567.072 1.143.09 1.726.025.584.037 1.198.037 1.841 0 1.49-.084 2.793-.254 3.91-.16 1.118-.372 2.049-.634 2.793-.254.754-.542 1.317-.863 1.689-.33.38-.656.571-.978.571-.186 0-.368-.076-.546-.228-.186-.153-.347-.377-.482-.673a4.268 4.268 0 01-.343-1.066 6.839 6.839 0 01-.14-1.46c0-.805.076-1.697.229-2.68a28.07 28.07 0 01.647-3.02c.271-1.025.593-2.049.965-3.073a30.81 30.81 0 011.206-2.856v-1.27c0-.999.038-1.875.114-2.628.085-.762.178-1.396.28-1.904.101-.516.198-.901.292-1.155.101-.263.169-.394.203-.394zm-.597 13.965c0-.745-.013-1.371-.038-1.879-.017-.5-.042-.956-.076-1.371a58.721 58.721 0 00-.09-1.219 46.35 46.35 0 01-.063-1.434 27.48 27.48 0 00-.9 2.336c-.28.837-.526 1.7-.737 2.59-.22.888-.39 1.785-.508 2.69a19.1 19.1 0 00-.19 2.654c0 .33.017.698.05 1.105.034.406.098.787.19 1.142.085.356.2.652.344.889.135.245.313.368.533.368.169 0 .326-.106.47-.317.143-.212.27-.504.38-.876a9.9 9.9 0 00.28-1.32c.084-.5.152-1.042.203-1.626.05-.584.089-1.193.114-1.828.025-.635.038-1.27.038-1.904z" fill="#000"/><path stroke="#000" stroke-width=".4" d="M1 38.8h66m-54 4h54m-14 4h14m-10 4h10"/></svg>
